X:1
T:Arnos Grove, 10.10.11.11
T:Arnos Grove, 10.10.11.11
T:W. D. Styer, 1888
T:Public Domain Courtesy of the Cyber Hymnal™
C:W. D. Styer, 1888
Z:Public Domain
Z:Courtesy of the Cyber Hymnal™
%%score ( 1 2 ) ( 3 4 )
L:1/8
Q:1/4=105
M:6/8
K:G
V:1 treble 
V:2 treble 
V:3 bass 
V:4 bass 
V:1
 [Gd] | (d2 ^c) [Gd]2 [Ge] | ([G-d]3 [GB]2) D | ([DG]2 [FA]) [GB]2 [Ge] | ([F-e]3 [DF]2) [DF] | %5
 [DG]2 [FA] ([GB]2 [G^c]) | ([Fd]3 [GB]2) [GB] | ([FA]2 [EG]) [DF]2 [^CE] | D3- D2 D | %9
 (c2 A) [DF]2 [FA] | G3 [DB]2 [DG] | (e2 d) [Fc]2 [FA] | [GB]3- [GB]2 [Gd] | (d2 ^c) [Gd]2 [Ge] | %14
 [Gd]3 [GB]2 G | ([GB]2 [Ac]) [FB]2 [FA] | G3- !fermata!G2 |] %17
V:2
 x | G3 x3 | x5 D | x6 | x6 | x6 | x6 | x6 | D3- D2 D | F3 x3 | G3 x3 | F3 x3 | x6 | G3 x3 | x5 G | %15
 x6 | G3- G2 |] %17
V:3
 [G,B,] | (B,2 ^A,) [G,B,]2 [G,C] | ([G,-B,]3 [G,D]2) [G,B,] | (B,2 C) [G,D]2 [G,B,] | %4
 [A,C]3- [A,C]2 [A,C] | B,2 [A,D] ([G,D]2 [E,A,]) | ([D,D]3 [G,D]2) [G,D] | A,3 [A,,A,]2 [A,,G,] | %8
 [D,F,]3- [D,F,]2 [D,F,] | (A,2 C) [D,A,]2 [D,D] | [G,B,]3 G,2 [G,B,] | (C2 A,) [D,D]2 [D,D] | %12
 [G,D]3- [G,D]2 [G,B,] | (B,2 ^A,) [G,B,]2 [G,C] | [G,B,]3 [G,D]2 [E,^C] | ([D,D]3 [D,D]2) [D,C] | %16
 [G,B,]3- !fermata![G,B,]2 |] %17
V:4
 x | G,3 x3 | x6 | G,3 x3 | x6 | B,2 x4 | x6 | A,3 x3 | x6 | D,3 x3 | x3 G,2 x | D,3 x3 | x6 | %13
 G,3 x3 | x6 | x6 | x5 |] %17

